X:169
T: Ihr lustige Brueder, stimmt das schoene Lied a,
N: D0298
O: Europa, Mitteleuropa, Deutschland, Baden, Alpirsbach
N: Inzipit = Variante zum Lied
R: Staende - Lied, Floesserlied
M: 3/4
L: 1/8
K: D
A,2 | D2D3E | F2F2
DF | A2A2BA | A2z2
AA | B2G3B | BAF2z
F | A3EA2 | F2z2
AA | B2G3B | BAF2z
A | c2B2G2 | F2z2

@@@ Tune index: 2691
